X:1
T:Prästadansen
C:Ola Nilsson
O:Kyrkhult, Blekinge
R:Långdans
M:3/4
L:1/8
Z:Andy Davey 2018
K:D
A |: A2 dd dd | dc Bc A2 | A2 dc df | ed cd e2 | f2 fe fa | gf ed eg | fe df ec | c2 d2 d2 :| 
|: A2 aa aa | ag gf g2 | ef ge fa | gf ed c2 | f2 fe fa | gf ed eg | fe df ec | c2 d2 d2 :|

